48x48/apps/org.kde.plasma.advancedradio.svg

<svg xmlns="http://www.w3.org/2000/svg" width="48" height="48" version="1">
 <rect style="opacity:0.2" width="38" height="29" x="5" y="16" rx="4.071" ry="3.955"/>
 <path style="fill:#8e8e8e" d="m 13.968755,4.0002434 a 1.9999941,1.9920389 0 0 0 -1.968549,2.0203763 v 9.9591983 a 1.9999941,1.9920389 0 1 0 3.999589,0 V 6.0206197 a 1.9999941,1.9920389 0 0 0 -2.03104,-2.0203763 z"/>
 <rect style="fill:#494949" width="6" height="3" x="11" y="13" rx="1.2" ry="1.5"/>
 <rect style="fill:#00cdbf" width="38" height="29" x="5" y="15" rx="4.071" ry="3.955"/>
 <circle style="opacity:0.5" cx="17.5" cy="29.5" r="9.5"/>
 <circle style="opacity:0.2" cx="17.5" cy="30.5" r="5.5"/>
 <circle style="fill:#ffa800" cx="17.5" cy="29.5" r="5.5"/>
 <path style="opacity:0.5" d="m 29.348057,28.00015 a 1.3292594,1.5 0 1 0 0,2.9997 h 9.303885 a 1.3292594,1.5 0 1 0 0,-2.9997 z"/>
 <path style="opacity:0.5" d="m 29.348057,23.00015 a 1.3292594,1.5 0 1 0 0,2.9997 h 9.303885 a 1.3292594,1.5 0 1 0 0,-2.9997 z"/>
 <path style="opacity:0.5" d="m 29.348057,33.00015 a 1.3292594,1.5 0 1 0 0,2.9997 h 9.303885 a 1.3292594,1.5 0 1 0 0,-2.9997 z"/>
 <path style="opacity:0.2;fill:#f4f4f7" d="M 9.0722656 15 C 6.8166941 15 5 16.76426 5 18.955078 L 5 19.955078 C 5 17.76426 6.8166941 16 9.0722656 16 L 38.927734 16 C 41.183306 16 43 17.76426 43 19.955078 L 43 18.955078 C 43 16.76426 41.183306 15 38.927734 15 L 9.0722656 15 z"/>
 <path style="opacity:0.2;fill:#f4f4f7" d="M 17.5 24 A 5.5 5.5 0 0 0 12 29.5 A 5.5 5.5 0 0 0 12.025391 29.986328 A 5.5 5.5 0 0 1 17.5 25 A 5.5 5.5 0 0 1 22.974609 30.013672 A 5.5 5.5 0 0 0 23 29.5 A 5.5 5.5 0 0 0 17.5 24 z"/>
</svg>

<svg xmlns="http://www.w3.org/2000/svg" width="48" height="48" version="1"><rect style="opacity:.2" width="38" height="29" x="5" y="16" rx="4.071" ry="3.955"/><path style="fill:#8e8e8e" d="M13.969 4A2 1.992 0 0 0 12 6.02v9.96a2 1.992 0 1 0 4 0V6.02A2 1.992 0 0 0 13.969 4z"/><rect style="fill:#494949" width="6" height="3" x="11" y="13" rx="1.2" ry="1.5"/><rect style="fill:#00cdbf" width="38" height="29" x="5" y="15" rx="4.071" ry="3.955"/><circle style="opacity:.5" cx="17.5" cy="29.5" r="9.5"/><circle style="opacity:.2" cx="17.5" cy="30.5" r="5.5"/><circle style="fill:#ffa800" cx="17.5" cy="29.5" r="5.5"/><path style="opacity:.5" d="M29.348 28a1.33 1.5 0 1 0 0 3h9.304a1.33 1.5 0 1 0 0-3zM29.348 23a1.33 1.5 0 1 0 0 3h9.304a1.33 1.5 0 1 0 0-3zM29.348 33a1.33 1.5 0 1 0 0 3h9.304a1.33 1.5 0 1 0 0-3z"/><path style="opacity:.2;fill:#f4f4f7" d="M9.072 15C6.817 15 5 16.764 5 18.955v1C5 17.765 6.817 16 9.072 16h29.856C41.183 16 43 17.764 43 19.955v-1C43 16.765 41.183 15 38.928 15H9.072zM17.5 24a5.5 5.5 0 0 0-5.5 5.5 5.5 5.5 0 0 0 .025.486A5.5 5.5 0 0 1 17.5 25a5.5 5.5 0 0 1 5.475 5.014A5.5 5.5 0 0 0 23 29.5a5.5 5.5 0 0 0-5.5-5.5z"/></svg>
